X:192
T:Sailor on the Rock, The
R:reel
S:Mary Bergin
Z:id:hn-reel-192
M:C|
K:D
d2fd BAFB|AD (3FED FAAB|defd BAFB|1 ABdf (3efe dA:|2 ABdf (3efe de||
|:faag fd (3Bcd|~g3a bgeg|1 faag fedB|ABdf (3efe de:|2 ~f3e dedB|ABdf (3efe dA||

